X: 152
T: There Came A Young Lad
T: Jig, A Dorian
L: 1/8
M: 6/8
K: A Dorian
|: E| ABA c2d| edc B2A| GAG B2d| c2e dBG| ABA c2d| edc Bcd| e2c dcB| A3 A2:| 
|: B| c2e g2a| gec gec| GGB d2B| dge dBG| c2e g2a| gec ceg| a2A BAG| A3 A2:| 
D: Stephanie Wills, Tradition Continued, STEPH 1-94
